src/assets/images/svg/bitcoin.svg

<svg width="10" height="14" viewBox="0 0 10 14" fill="none" xmlns="http://www.w3.org/2000/svg">
<path fill-rule="evenodd" clip-rule="evenodd" d="M8.14341 0.84L6.99473 0.539L6.54606 2.4822C6.24339 2.4003 5.93272 2.3275 5.63072 2.254L6.08806 0.301L4.94005 0L4.47338 1.9894C4.22337 1.9257 3.98204 1.8704 3.74003 1.8074L2.16002 1.3874L1.85735 2.6831C1.85735 2.6831 2.71203 2.8931 2.69469 2.9022C3.16136 3.0212 3.24803 3.3495 3.2307 3.605L2.88469 5.0652L2.58269 6.3336L1.93535 9.072C1.87468 9.2176 1.73668 9.4458 1.40868 9.3639C1.41668 9.3821 0.570672 9.1448 0.570672 9.1448L0 10.5231L1.49335 10.9151C1.77002 10.9886 2.04669 11.0705 2.31469 11.1433L1.83935 13.1607L2.98803 13.4617L3.4547 11.4625L3.82537 10.0023L4.45604 7.3283C4.58538 7.3654 4.72404 7.3927 4.87071 7.4291C5.33738 7.5383 5.82072 7.5838 6.29539 7.6209C6.58873 7.6482 6.87406 7.6573 7.1674 7.6573C7.60533 7.64714 8.03921 7.56689 8.45408 7.4193C8.80008 7.301 9.20542 7.1463 9.46476 6.8537C9.76676 6.5163 9.91409 6.0697 9.97409 5.6217C10.1814 4.1524 9.11942 3.3586 7.67741 2.8287L8.14341 0.84ZM8.04874 8.05C7.72874 8.1046 7.56474 8.1319 7.2454 8.1501L6.79606 8.1774C7.22807 8.4875 7.49607 8.9166 7.3574 9.5095C7.09873 10.6232 5.72539 10.4685 4.70671 10.2305L4.36071 11.7096L4.34404 11.7726L3.90337 13.699L5.04338 14L5.51805 11.9833C7.47007 12.3753 8.94675 12.2206 9.55942 10.3404C9.94809 9.1812 9.66342 8.2775 9.06742 7.721C9.05875 7.7301 9.04142 7.7301 9.03275 7.7392C8.75675 7.8582 8.36808 7.9954 8.04874 8.05ZM7.7114 5.6035C7.39207 6.9727 5.38872 6.279 4.74071 6.1054L5.31072 3.6778C5.95872 3.8605 8.04874 4.1706 7.7114 5.6035Z" fill="#E98566"/>
</svg>

<svg width="10" height="14" fill="none" xmlns="http://www.w3.org/2000/svg"><path fill-rule="evenodd" clip-rule="evenodd" d="M8.143.84L6.995.539l-.449 1.943c-.303-.082-.613-.155-.915-.228L6.088.301 4.94 0l-.467 1.99c-.25-.064-.491-.12-.733-.183l-1.58-.42-.303 1.296s.855.21.838.22c.466.118.553.446.536.702l-.346 1.46-.302 1.269-.648 2.738c-.06.146-.198.374-.526.292.008.018-.838-.22-.838-.22L0 10.525l1.493.391c.277.074.554.155.822.228l-.476 2.018 1.149.3.467-1.998.37-1.46.631-2.675c.13.037.268.065.415.101.466.11.95.155 1.424.192.294.027.58.036.872.036.438-.01.872-.09 1.287-.238.346-.118.751-.273 1.01-.565.303-.338.45-.784.51-1.232.207-1.47-.855-2.263-2.297-2.793L8.143.84zM8.05 8.05c-.32.055-.484.082-.804.1l-.449.027c.432.31.7.74.561 1.332-.258 1.114-1.632.96-2.65.721l-.346 1.48-.017.063-.44 1.926 1.14.301.474-2.017c1.952.392 3.429.238 4.041-1.643.39-1.159.104-2.063-.492-2.619-.008.01-.026.01-.034.018a4.78 4.78 0 01-.984.311zM7.71 5.603c-.319 1.37-2.322.676-2.97.502l.57-2.427c.648.183 2.738.493 2.4 1.926z" fill="#E98566"/></svg>
